X:2
T:I'll Take Romance
C:Ben Oakland
L:1/4
M:C
I:linebreak $
K:F
"F" F2"Dm" D/F/- F |"Gm" G2-"Go" G A/B/ |"Am" c c"Ab7" c3/2 c/ |"Db" (3c _d c"Gø" B2 |$
"Dm" (3B c B"Ebo" A c |"Gm" G2"Gb7" (3G F E Ox/||1"F6" F4 "Dm" x4|"Gm" z4 "Gb7" x4:|2
"F6" F4 "F#" x4||$"F" z F/G/"Dm" E/F/A/c/ ||[K:Db]"Ebm" d2"Ebo" e2 |"Fm" c2"Eo" B2 |
"Ebm" d d"Ab7" (3d e d |$"Dbo" c2"Db6" B2 ||[K:B]"C#m" B2"F#7" c2 |"B" A2"E7" G2 ||
[K:F]"Dm" A A"Ebo" (3A c B |$"Gm" G G"Gb7" (3G B "_D.C. al Coda" A ||O"F6" F4- | F4 |]

